!!!OTL: STIEGLITZ STIEGLITZ ZEISERL IS KRANK
!!!ARE: Europa, Mitteleuropa, Oesterreich
!!!SCT: E1828
!!!YEM: Copyright 1995, estate of Helmut Schaffrath.
**kern
*ICvox
*Ivox
*M3/8
*k[f#]
*G:
=1
{4dd
8b
=2
4dd
8b}
=3
{8dd
8cc
8a
=4
4g
8r}
=5
{8a
8a
8b
=6
4cc
8b}
=7
{8a
8a
8b
=8
4cc
8a}
=9
{8b
8b
8cc
=10
4dd
8b}
=11
{8cc
8cc
8a
=12
8g
8g
8g}
==
!!!AGN: Kinder - Lied, Trost
!!!ONB: ESAC (Essen Associative Code) Database: ERK3
!!!AMT: simple triple
!!!AIN: vox
!!!EED: Helmut Schaffrath
!!!EEV: 1.0
*-
